images/pinterest.svg

<svg width="20" height="20" viewBox="0 0 20 20" fill="none" xmlns="http://www.w3.org/2000/svg">
<path id="pinterest" d="M10 0C4.4775 0 0 4.47667 0 10C0 14.2367 2.63583 17.855 6.35583 19.3117C6.26833 18.5208 6.18917 17.3075 6.39083 16.4442C6.5725 15.6633 7.56333 11.4733 7.56333 11.4733C7.56333 11.4733 7.26417 10.8742 7.26417 9.98833C7.26417 8.59833 8.07 7.56 9.07333 7.56C9.92583 7.56 10.3383 8.20083 10.3383 8.96833C10.3383 9.82583 9.7925 11.1083 9.51 12.2975C9.27417 13.2925 10.0092 14.105 10.9908 14.105C12.7683 14.105 14.1342 12.2308 14.1342 9.52583C14.1342 7.13167 12.4142 5.4575 9.9575 5.4575C7.1125 5.4575 5.4425 7.59167 5.4425 9.79667C5.4425 10.6558 5.77333 11.5783 6.18667 12.0783C6.26833 12.1775 6.28 12.265 6.25583 12.3658L5.97833 13.4992C5.93417 13.6825 5.83333 13.7217 5.64333 13.6333C4.39417 13.0517 3.61333 11.2258 3.61333 9.75917C3.61333 6.605 5.905 3.7075 10.2208 3.7075C13.69 3.7075 16.3858 6.18 16.3858 9.48333C16.3858 12.93 14.2133 15.7033 11.1967 15.7033C10.1833 15.7033 9.23083 15.1775 8.905 14.555L8.28167 16.9325C8.05583 17.8017 7.44667 18.8908 7.03833 19.5542C7.975 19.8433 8.96917 20 10 20C15.5225 20 20 15.5225 20 10C20 4.47667 15.5225 0 10 0Z" fill="white"/>
</svg>

<svg width="20" height="20" fill="none" xmlns="http://www.w3.org/2000/svg"><path d="M10 0C4.478 0 0 4.477 0 10c0 4.237 2.636 7.855 6.356 9.312-.088-.791-.167-2.005.035-2.868.181-.78 1.172-4.97 1.172-4.97s-.299-.6-.299-1.486c0-1.39.806-2.428 1.81-2.428.852 0 1.264.64 1.264 1.408 0 .858-.545 2.14-.828 3.33-.236.995.5 1.807 1.48 1.807 1.778 0 3.144-1.874 3.144-4.58 0-2.393-1.72-4.068-4.177-4.068-2.845 0-4.515 2.135-4.515 4.34 0 .859.331 1.781.745 2.281a.3.3 0 0 1 .069.288l-.278 1.133c-.044.183-.145.223-.335.134-1.249-.581-2.03-2.407-2.03-3.874 0-3.154 2.292-6.052 6.608-6.052 3.469 0 6.165 2.473 6.165 5.776 0 3.447-2.173 6.22-5.19 6.22-1.013 0-1.965-.525-2.291-1.148l-.623 2.378c-.226.869-.835 1.958-1.244 2.621.937.29 1.931.446 2.962.446 5.523 0 10-4.477 10-10S15.523 0 10 0Z" fill="#fff"/></svg>
